X:5813
T:Gan ainm
R:Reel
S:
H:
N:
D:Milltown Session
Z:Adrian Scahill
M:4/4
L:1/8
K:D
D2FA fdAF|EFGB e3d|cAA2 (3Bcd ed|cAGE DEFE|\
D2FA fdAF|EFGB e3d|cAA2 (3Bcd ed|cAGE D4:||\
FBBA B3c|dBB^A B3d|cAA2 ^GAA2|Acec dcBA|\
FBBA B3c|dBB^A B3e|edcd fedc|BAGF EDCE:||


